web/images/roof.svg

<svg width="1326" height="353" viewBox="0 0 1326 353" fill="none" xmlns="http://www.w3.org/2000/svg">
<path d="M653.611 78.6251L78 337H1229.22L653.611 78.6251Z" fill="#5A3C26"/>
<path d="M759.494 136.411C757.935 137.733 750.674 138.015 747.425 138.375C700.398 143.561 617.057 147.339 591.01 168.523C574.187 182.213 605.489 186.719 628.695 189.668C652.937 192.75 687.149 196.348 711.958 197.381C714.298 197.475 750.933 196.661 738.803 200.15C735.445 201.12 699.863 200.009 692.931 199.728C664.716 198.594 613.005 195.175 590.905 187.212C558.918 175.673 590.874 158.941 616.517 151.916C656.234 141.042 713.529 136.083 759.498 136.419L759.494 136.411Z" fill="#442E1A"/>
<path d="M1001.65 259.149C1004.46 260.534 992.813 265.29 990.372 266.166C936.105 285.597 810.5 274.638 744.789 271.657C732.54 271.102 719.941 270.844 707.618 270.867C704.808 269.905 707.648 269.451 710.173 269.303C723.659 268.528 747.818 269.037 762.165 269.271C822.173 270.241 887.498 275.717 946.295 268.129C953.455 267.206 999.652 258.163 1001.64 259.149H1001.65Z" fill="#442E1A"/>
<path d="M711.66 111.707C712.6 113.944 710.312 112.966 707.88 113.475C662.381 123.042 604.041 120.93 556 127.329C599.62 111.863 659.545 114.969 711.66 111.707Z" fill="#442E1A"/>
<path d="M726.629 143.444C727.169 145.22 726.177 145.916 723.056 146.902C709.512 151.189 679.835 152.175 661.735 157.494C604.496 174.321 671.99 186.766 707.541 190.396C709.258 193.212 704.152 193.494 698.638 193.314C682.737 192.774 638.818 183.332 635.363 175.713C629.884 163.627 648.841 157.298 670.129 152.699C687.992 148.834 708.103 146.597 726.629 143.452V143.444Z" fill="#442E1A"/>
<path fill-rule="evenodd" clip-rule="evenodd" d="M80.2051 336.01C86.5902 335.645 92.9706 335.258 99.3459 334.849C207.666 327.897 312.811 314.19 417.682 300.519C442.377 297.3 467.057 294.082 491.76 290.956C492.129 290.91 492.569 290.876 493.033 290.839C494.805 290.7 496.908 290.535 496.585 289.642C496.586 289.642 496.588 289.642 496.589 289.642H496.585C496.585 289.642 496.585 289.642 496.585 289.642C469.331 290.596 442.022 293.132 415.116 295.632C413.337 295.797 411.559 295.962 409.784 296.127C359.686 300.768 309.889 306.327 260.065 311.889C205.517 317.978 150.937 324.071 95.8946 328.967L80.2051 336.01Z" fill="#442E1A"/>
<path fill-rule="evenodd" clip-rule="evenodd" d="M133.973 311.876C202.602 309.524 269.965 301.303 337.251 293.091C423.978 282.507 510.576 271.938 599.591 273.973C613.635 274.294 633.535 275.28 647.132 276.719C649.209 276.938 653.179 277.59 658.019 278.385C672.162 280.708 693.728 284.25 697.153 281.772C697.451 281.553 697.398 279.574 697.236 279.488H697.24C697.115 279.419 695.936 279.322 694.423 279.196C692.327 279.022 689.59 278.795 688.122 278.518C599.38 261.715 528.01 265.877 436.033 275.17C396.645 279.151 357.812 283.86 318.989 288.567C261.416 295.548 203.866 302.527 144.56 307.124L133.973 311.876Z" fill="#442E1A"/>
<path fill-rule="evenodd" clip-rule="evenodd" d="M183.928 289.452C217.396 285.992 250.837 282.686 283.51 279.707C306.704 277.594 330.699 275.98 354.723 274.364C387.539 272.157 420.411 269.946 451.371 266.455C457.833 265.727 461.393 265.125 456.867 261.824C430.491 262.935 403.325 265.078 376.923 267.206C318.098 271.95 257.727 277.446 197.76 283.243L183.928 289.452Z" fill="#442E1A"/>
<path fill-rule="evenodd" clip-rule="evenodd" d="M244.914 262.078C246.251 261.964 247.588 261.851 248.926 261.738C311.768 256.457 375.772 253.319 439.251 250.207C441.964 250.075 444.675 249.942 447.385 249.809C454.243 249.472 456.157 247.626 448.97 246.617C428.141 246.89 407.679 248.521 387.242 250.15C374.916 251.132 362.598 252.114 350.215 252.797C336.55 253.549 322.771 253.867 309.003 254.185C297.418 254.452 285.84 254.72 274.345 255.245C268.964 255.492 263.607 255.772 258.27 256.082L244.914 262.078Z" fill="#442E1A"/>
<path fill-rule="evenodd" clip-rule="evenodd" d="M297.914 238.287C361.845 237.003 426.802 237.598 484.875 241.376C513.873 243.264 541.544 247.538 569.071 251.789C610.225 258.146 651.059 264.452 695.526 262.662C695.591 261.539 685.621 261.491 679.108 261.46C676.818 261.449 674.955 261.44 674.107 261.387C642.454 259.452 614.484 254.351 586.268 249.205C571.596 246.529 556.857 243.841 541.499 241.58C480.352 232.573 394.658 230.543 312.302 231.828L297.914 238.287Z" fill="#442E1A"/>
<path fill-rule="evenodd" clip-rule="evenodd" d="M345.775 337C354.032 336.154 362.277 335.259 370.498 334.366C393.57 331.861 416.451 329.376 438.891 328.058C459.298 326.86 484.084 326.45 509.873 326.024C557.142 325.242 607.78 324.405 640.999 318.554C641.275 318.505 641.548 318.46 641.814 318.416C644.128 318.031 645.935 317.731 645.336 316.223L645.332 316.23C605.671 320.85 565.164 320.76 524.686 320.67C508.064 320.633 491.446 320.596 474.895 320.885C438.04 321.529 402.079 324.522 366.146 327.512C324.399 330.986 282.689 334.457 239.659 334.238L196.496 332.635C193.852 334.55 199.038 335.994 204.601 337H345.775Z" fill="#442E1A"/>
<path fill-rule="evenodd" clip-rule="evenodd" d="M690.86 337C734.561 329.972 775.772 323.706 834.293 324.999C854.54 325.445 877.199 327.521 900.25 329.632C938.125 333.1 977.061 336.666 1008.11 333.267C1010.66 332.985 1041.06 327.924 1035.72 325.82C991.991 328.494 949.908 325.009 907.674 321.511C870.463 318.429 833.134 315.338 794.457 316.441C751.483 317.667 710.395 324.515 669.291 331.365C657.775 333.285 646.259 335.204 634.699 337H690.86Z" fill="#442E1A"/>
<path fill-rule="evenodd" clip-rule="evenodd" d="M1221.92 333.721C1209.25 335.031 1192.78 332.971 1176.18 330.895C1155.91 328.36 1135.45 325.801 1121.5 329.325C1120.98 329.457 1120.53 329.516 1120.16 329.565C1119.13 329.702 1118.73 329.755 1119.29 331.069V331.062C1134.02 330.164 1150.54 332.344 1167.21 334.542C1173.9 335.424 1180.61 336.309 1187.23 337H1226.5C1227.15 336.89 1227.8 336.773 1228.44 336.648L1221.92 333.721Z" fill="#442E1A"/>
<path fill-rule="evenodd" clip-rule="evenodd" d="M1181.12 315.406C1178.03 315.029 1175.01 314.742 1172.1 314.627C1126.36 312.818 1088.45 321.926 1050.57 331.027C1042.12 333.059 1033.66 335.091 1025.12 337H1061.65C1063.41 336.618 1065.15 336.236 1066.9 335.855C1099.24 328.788 1130.32 321.996 1172.11 323.224C1177.42 323.379 1184.14 324.007 1191.12 324.661C1195.5 325.071 1199.99 325.491 1204.29 325.809L1181.12 315.406Z" fill="#442E1A"/>
<path fill-rule="evenodd" clip-rule="evenodd" d="M1131.57 293.169C1114.29 295.187 1097.01 297.198 1079.53 298.645C1045.34 301.477 1006.13 303.198 971.405 302.142C958.737 301.757 945.813 300.7 932.821 299.638C915.174 298.194 897.401 296.741 879.976 296.948C878.435 296.971 874.036 297.362 875.402 298.622C876.403 299.545 897.528 304.168 901.361 304.872C946.109 313.117 999.519 312.961 1046.31 308.651C1070.66 306.408 1094.58 303.092 1118.53 299.773C1125.61 298.791 1132.69 297.81 1139.79 296.855L1131.57 293.169Z" fill="#442E1A"/>
<path fill-rule="evenodd" clip-rule="evenodd" d="M1106.69 281.997C1104.47 283.044 1102.32 284.154 1100.23 285.331C1101.46 286.338 1103.88 285.653 1105.59 285.17C1105.86 285.094 1106.11 285.022 1106.34 284.964C1107.83 284.576 1109.31 284.2 1110.78 283.835L1106.69 281.997Z" fill="#442E1A"/>
<path fill-rule="evenodd" clip-rule="evenodd" d="M1072.5 266.651C968.258 284.375 862.255 292.307 750.06 293.584C737.602 293.725 720.057 293.525 700.307 293.301C645.328 292.677 573.262 291.858 546.28 297.636C546.247 297.643 546.212 297.651 546.176 297.659C543.76 298.176 536.409 299.749 539.84 301.36C540.508 301.674 548.514 300.629 556.888 299.535C564.356 298.56 572.116 297.547 575.229 297.425C589.954 296.857 604.492 297.502 618.995 298.145C628.044 298.546 637.079 298.947 646.138 299.052C781.256 300.625 907.459 297.441 1036.17 278.267C1051.48 275.986 1066.87 273.579 1082.24 271.025L1072.5 266.651Z" fill="#442E1A"/>
<path fill-rule="evenodd" clip-rule="evenodd" d="M788.312 139.088C776.282 141.555 764.727 144.335 753.784 147.495C729.076 154.63 704.632 166.473 712.253 180.812C716.481 188.768 739.134 194.118 755.588 195.628C802.882 199.973 856.432 198.303 909.806 193.624L896.859 187.812C849.221 188.802 782.002 188.589 745.684 183.691C695.483 176.924 739.301 156.311 765.576 149.709C746.711 164.916 743.713 181.915 791.504 184.09H791.495C795.986 184.296 800.785 184.207 805.588 184.117C809.898 184.037 814.21 183.957 818.305 184.09C818.407 183.306 818.522 182.938 818.388 182.761C818.202 182.519 817.543 182.637 815.724 182.533C786.494 180.851 747.796 178.528 763.372 160.434C769.532 153.278 782.439 147.832 798.331 143.586L788.312 139.088Z" fill="#442E1A"/>
<path fill-rule="evenodd" clip-rule="evenodd" d="M759.816 126.297C661.952 135.405 564.796 145.834 479.442 171.261C479.037 171.381 478.358 171.567 477.495 171.804C471.912 173.334 458.625 176.974 462.009 178.614C468.874 177.075 475.724 175.523 482.572 173.972C515.05 166.617 547.499 159.269 581.376 153.222C645.512 141.769 705.599 135.595 767.799 129.881L759.816 126.297ZM846.107 165.031C846.481 166.963 850.202 168.918 858.983 170.81L876.987 178.892C853.478 176.248 829.979 169.892 837.744 161.276L846.107 165.031Z" fill="#442E1A"/>
<path fill-rule="evenodd" clip-rule="evenodd" d="M943.607 208.795C859.327 213.101 767.056 208.311 682.212 203.906C658.564 202.678 635.492 201.48 613.332 200.517C592.361 199.608 571.17 198.616 549.882 197.62C500.577 195.314 450.756 192.983 401.958 191.585L383.188 200.011C388.404 200.149 393.626 200.314 398.853 200.51C438 201.971 476.797 203.761 515.552 205.55C581.751 208.604 647.828 211.653 715.323 213.049C718.588 213.117 721.837 213.185 725.068 213.252C807.288 214.966 878.667 216.454 949.673 211.518L943.607 208.795Z" fill="#442E1A"/>
<path fill-rule="evenodd" clip-rule="evenodd" d="M966.21 218.942C869.885 229.413 763.274 233.576 682.443 231.833C629.277 230.686 597.185 225.592 553.023 218.583C547.175 217.655 541.116 216.693 534.768 215.702C534.68 215.689 534.591 215.675 534.502 215.66C532.489 215.343 530.05 214.959 531.168 216.539C531.62 217.181 554.256 221.874 557.689 222.547C655.58 241.752 809.822 239.898 913.758 231.543C936.172 229.743 958.171 227.591 979.666 224.982L966.21 218.942Z" fill="#442E1A"/>
<path fill-rule="evenodd" clip-rule="evenodd" d="M1008.39 237.876C913.969 251.047 821.18 254.023 722.325 250.536C721.649 250.513 719.696 250.384 717.032 250.208C707.004 249.547 686.895 248.221 686.84 249.37C795.744 265.477 912.223 258.381 1019.87 243.027L1008.39 237.876Z" fill="#442E1A"/>
<path d="M47.8859 352.434L78.0256 337.224L653.637 79.4871V27.0413L25.3516 311.872L47.8859 352.434Z" fill="#382A21"/>
<path d="M653.494 27.0413V79.4871L1229.11 337.224L1259.25 352.434L1281.78 311.872L653.494 27.0413Z" fill="#382A21"/>
<path d="M1325.52 287.873V296.788C1322.43 303.853 1320.71 310.968 1313.91 315.511C1295.87 327.567 1273.88 316.582 1259 304.788C1251.01 298.461 1243.4 288.019 1234.74 283.527C1215.23 273.397 1196.52 277.595 1176.1 269.834C1129.95 252.291 1103.65 217.124 1049.68 206.113C1019.3 199.913 1006.58 197.527 979.894 180.367C954.819 164.244 930.544 147.405 904.488 132.592C873.512 114.978 837.178 107.057 803.867 93.934C759.764 76.5601 713.513 47.0485 667.331 39.4122C629.967 33.235 614.855 45.1726 581.408 54.7327C558.384 61.3128 535.117 64.1042 512.405 72.3461C473.522 86.4555 441.887 113.514 404.246 130.226C359.498 150.092 317.973 153.726 276.516 183.728C253.866 200.119 236.041 222.785 211.293 236.317C169.779 259.015 121.66 254.488 82.5287 285.225C61.2845 301.912 44.1246 332.206 14.168 331.561C-1.07365 322.835 -2.17219 305.546 2.30369 289.853C11.5118 257.573 60.7577 220.915 91.0045 208.986C112.57 200.482 135.856 197.851 157.985 191.139C217.276 173.151 261.418 128.082 315.19 99.2944C353.104 78.9966 382.424 73.6813 422.597 62.062C510.228 36.7081 570.014 -14.1942 668.221 3.75162C742.044 17.2412 783 58.3185 847.623 85.033C889.221 102.232 932.589 115.759 973.277 135.259C1002.57 149.298 1028.77 168.883 1058.72 182.826C1094.99 199.71 1128.76 208.023 1166.9 218.4C1202.56 228.103 1229.05 247.477 1264.62 255.494C1287.72 260.702 1316.07 261.423 1325.53 287.87L1325.52 287.873Z" fill="white"/>
<path d="M1313.91 315.511C1305.45 339.175 1280.79 336.589 1261.22 329.316C1231.63 318.32 1207.76 296.109 1178.11 283.876C1166.95 279.27 1150.18 273.276 1138.63 269.792C1118.46 263.705 1098.82 265.51 1081.23 251.3C1074.47 245.844 1071.6 238.3 1065.58 233.033C1049.23 218.726 1029.74 220.467 1010.19 215.211C977.702 206.476 961.5 192.457 934.183 176.06C908.575 160.689 880.1 159.791 854.417 146.901C829.821 134.558 808.509 112.054 779.882 105.39C748.275 98.0295 728.991 97.7 700.829 78.1937C686.666 68.3828 676.937 53.5327 657.743 54.2566C634.397 55.1382 608.562 80.3485 584.951 89.4777C569.71 95.3705 554.831 95.8606 540.976 100.863C524.869 106.683 509.675 119.099 492.98 124.285C485.637 126.566 477.747 127.079 470.446 129.431C448.858 136.389 433.771 159.988 412.285 169.452C373.419 186.57 337.592 183.73 298.309 208.155C264.147 229.396 229.351 256.153 189.263 266.04C170.88 270.575 154.005 267.355 136.211 275.499C101.86 291.219 57.862 356.577 14.168 331.558C44.1274 332.204 61.2844 301.909 82.5287 285.222C121.66 254.485 169.779 259.012 211.293 236.314C236.041 222.782 253.866 200.116 276.516 183.725C317.973 153.723 359.501 150.089 404.246 130.223C441.889 113.511 473.522 86.4525 512.405 72.3432C535.117 64.1013 558.383 61.3098 581.408 54.7298C614.854 45.1724 629.969 33.232 667.331 39.4093C713.515 47.0456 759.764 76.5571 803.867 93.9311C837.178 107.055 873.512 114.973 904.488 132.589C930.544 147.402 954.819 164.241 979.894 180.364C1006.58 197.524 1019.3 199.91 1049.68 206.11C1103.65 217.121 1129.95 252.291 1176.1 269.831C1196.52 277.592 1215.23 273.395 1234.74 283.524C1243.4 288.019 1251.01 298.458 1259 304.785C1273.88 316.579 1295.87 327.564 1313.91 315.508L1313.91 315.511Z" fill="#C1DDE5"/>
</svg>

<svg xmlns="http://www.w3.org/2000/svg" width="1326" height="353" fill="none">
  <path fill="#5A3C26" d="M653.6 78.6 78 337h1151.2L653.6 78.6Z" />
  <path fill="#442E1A"
    d="M759.5 136.4c-1.6 1.3-8.8 1.6-12 2-47.1 5.2-130.4 9-156.5 30.1-16.8 13.7 14.5 18.2 37.7 21.2 24.2 3 58.4 6.6 83.3 7.7 2.3 0 39-.7 26.8 2.8-3.4 1-39-.2-45.9-.5-28.2-1.1-79.9-4.5-102-12.5-32-11.5 0-28.3 25.6-35.3 39.7-10.9 97-15.8 143-15.5ZM1001.6 259.1c2.9 1.4-8.8 6.2-11.2 7-54.3 19.5-179.9 8.5-245.6 5.6-12.3-.6-24.9-.9-37.2-.8-2.8-1 0-1.4 2.6-1.6 13.5-.8 37.6-.3 52 0 60 1 125.3 6.4 184-1.2 7.3-.9 53.5-10 55.4-9ZM711.7 111.7c.9 2.2-1.4 1.3-3.8 1.8-45.5 9.5-103.9 7.4-151.9 13.8 43.6-15.4 103.5-12.3 155.7-15.6Z" />
  <path fill="#442E1A"
    d="M726.6 143.4c.6 1.8-.4 2.5-3.5 3.5-13.6 4.3-43.3 5.3-61.4 10.6-57.2 16.8 10.3 29.3 45.8 32.9 1.8 2.8-3.3 3-8.9 3-15.9-.6-59.8-10-63.2-17.7-5.5-12 13.4-18.4 34.7-23 17.9-3.9 38-6.1 56.5-9.2Z" />
  <path fill="#442E1A" fill-rule="evenodd"
    d="M80.2 336c6.4-.4 12.8-.7 19.1-1.2 108.4-6.9 213.5-20.6 318.4-34.3l74-9.5 1.3-.2c1.8-.1 4-.3 3.6-1.2a1419.5 1419.5 0 0 0-86.8 6.5c-50.1 4.7-100 10.2-149.7 15.8-54.6 6-109.2 12.2-164.2 17L80.2 336Z"
    clip-rule="evenodd" />
  <path fill="#442E1A" fill-rule="evenodd"
    d="M134 311.9c68.6-2.4 136-10.6 203.3-18.8 86.7-10.6 173.3-21.2 262.3-19.1 14 .3 34 1.3 47.5 2.7 2.1.2 6 .9 11 1.7 14 2.3 35.6 5.9 39 3.4.4-.2.3-2.2.1-2.3l-2.8-.3c-2-.2-4.8-.4-6.3-.7-88.7-16.8-160-12.6-252-3.3-39.5 4-78.3 8.7-117.1 13.4-57.6 7-115.1 14-174.4 18.5L134 312ZM184 289.5c33.4-3.5 66.8-6.8 99.5-9.8 23.2-2.1 47.2-3.7 71.2-5.3 32.8-2.2 65.7-4.5 96.7-8 6.4-.7 10-1.3 5.5-4.6-26.4 1.1-53.6 3.3-80 5.4-58.8 4.8-119.2 10.2-179.1 16l-13.9 6.3ZM245 262l4-.3a5500 5500 0 0 1 198.4-11.9c6.8-.3 8.8-2.2 1.6-3.2-20.9.3-41.3 2-61.8 3.6-12.3 1-24.6 2-37 2.6-13.6.7-27.4 1-41.2 1.4a1537.7 1537.7 0 0 0-50.7 1.9l-13.4 6Z"
    clip-rule="evenodd" />
  <path fill="#442E1A" fill-rule="evenodd"
    d="M298 238.3c63.8-1.3 128.8-.7 186.9 3 29 2 56.6 6.2 84.2 10.5 41.1 6.3 82 12.7 126.4 10.9 0-1.2-9.9-1.2-16.4-1.2l-5-.1c-31.6-2-59.6-7-87.8-12.2-14.7-2.7-29.4-5.4-44.8-7.6-61.1-9-146.8-11-229.2-9.8l-14.4 6.5ZM345.8 337l24.7-2.6c23-2.5 46-5 68.4-6.3 20.4-1.2 45.2-1.7 71-2 47.2-.9 97.9-1.7 131.1-7.5l.8-.2c2.3-.4 4.1-.7 3.5-2.2-39.6 4.7-80.1 4.6-120.6 4.5-16.6 0-33.3-.1-49.8.2-36.9.6-72.8 3.6-108.8 6.6-41.7 3.5-83.4 7-126.4 6.7l-43.2-1.6c-2.6 2 2.5 3.4 8.1 4.4h141.2ZM690.9 337c43.7-7 84.9-13.3 143.4-12 20.2.4 42.9 2.5 66 4.6 37.8 3.5 76.8 7 107.8 3.7 2.6-.3 33-5.4 27.6-7.5-43.7 2.7-85.8-.8-128-4.3a1009 1009 0 0 0-113.2-5c-43 1.2-84.1 8-125.2 14.9l-34.6 5.6h56.2ZM1222 333.7c-12.8 1.3-29.2-.7-45.8-2.8-20.3-2.5-40.8-5.1-54.7-1.6l-1.3.3c-1 .1-1.5.2-1 1.5 14.8-1 31.3 1.2 48 3.4 6.7 1 13.4 1.8 20 2.5h39.3l2-.4-6.6-2.9Z"
    clip-rule="evenodd" />
  <path fill="#442E1A" fill-rule="evenodd"
    d="M1181.1 315.4c-3-.4-6-.7-9-.8-45.7-1.8-83.6 7.3-121.5 16.4l-25.5 6h36.6l5.2-1.1c32.3-7.1 63.4-13.9 105.2-12.7 5.3.2 12 .8 19 1.5l13.2 1.1-23.2-10.4ZM1131.6 293.2c-17.3 2-34.6 4-52 5.4-34.3 2.9-73.5 4.6-108.2 3.5-12.7-.3-25.6-1.4-38.6-2.5A570.2 570.2 0 0 0 880 297c-1.6 0-6 .5-4.6 1.7 1 1 22.1 5.6 26 6.3 44.7 8.2 98.1 8 145 3.8 24.3-2.3 48.2-5.6 72.1-9l21.3-2.8-8.2-3.7ZM1106.7 282c-2.2 1-4.4 2.2-6.5 3.3 1.3 1 3.7.4 5.4-.1l.7-.2 4.5-1.2-4.1-1.8ZM1072.5 266.7a2049.3 2049.3 0 0 1-322.4 26.9c-12.5.1-30 0-49.8-.3-55-.6-127-1.4-154 4.3h-.1c-2.4.6-9.8 2.1-6.4 3.8.7.3 8.7-.8 17-1.9 7.6-1 15.3-2 18.4-2 14.8-.6 29.3 0 43.8.6 9 .4 18 .8 27.1 1 135.2 1.5 261.4-1.7 390-20.8 15.4-2.3 30.8-4.7 46.1-7.3l-9.7-4.3ZM788.3 139c-12 2.6-23.6 5.3-34.5 8.5-24.7 7.1-49.2 19-41.5 33.3 4.2 8 26.8 13.3 43.3 14.8a887.4 887.4 0 0 0 154.2-2l-13-5.8c-47.6 1-114.8.8-151.1-4.1-50.2-6.8-6.4-27.4 19.9-34-18.9 15.2-21.9 32.2 25.9 34.4 4.5.2 9.3.1 14 0 4.4 0 8.7-.1 12.8 0 .1-.8.2-1.2 0-1.3-.1-.3-.8-.2-2.6-.3-29.2-1.6-67.9-4-52.3-22 6.1-7.2 19-12.7 35-17l-10-4.4Z"
    clip-rule="evenodd" />
  <path fill="#442E1A" fill-rule="evenodd"
    d="M759.8 126.3c-97.8 9.1-195 19.5-280.4 45-.4 0-1 .3-1.9.5-5.6 1.5-18.9 5.2-15.5 6.8l20.6-4.6c32.4-7.4 64.9-14.7 98.8-20.8A2158.1 2158.1 0 0 1 767.8 130l-8-3.6Zm86.3 38.7c.4 2 4.1 4 12.9 5.8l18 8c-23.5-2.6-47-9-39.3-17.5l8.4 3.7ZM943.6 208.8c-84.3 4.3-176.5-.5-261.4-4.9l-68.9-3.4-63.4-2.9c-49.3-2.3-99.1-4.6-148-6l-18.7 8.4 15.7.5c39.1 1.5 77.9 3.3 116.7 5 66.2 3.1 132.2 6.2 199.7 7.5l9.8.3c82.2 1.7 153.6 3.2 224.6-1.8l-6-2.7ZM966.2 219c-96.3 10.4-203 14.6-283.8 12.8-53.1-1.1-85.2-6.2-129.4-13.2-5.8-1-11.9-2-18.2-2.9h-.3c-2-.4-4.5-.7-3.3.8.4.7 23 5.4 26.5 6 97.9 19.3 252.1 17.4 356 9 22.5-1.8 44.5-4 66-6.5l-13.5-6ZM1008.4 237.9A1626.2 1626.2 0 0 1 717 250.2c-10-.7-30.1-2-30.2-.8 109 16 225.4 9 333-6.4l-11.4-5.1Z"
    clip-rule="evenodd" />
  <path fill="#382A21" d="M47.9 352.4 78 337.2 653.6 79.5V27L25.4 312l22.5 40.5Z" />
  <path fill="#382A21" d="M653.5 27v52.5L1229 337.2l30.2 15.2 22.5-40.5L653.5 27Z" />
  <path fill="#fff"
    d="M1325.5 287.9v8.9c-3 7-4.8 14.2-11.6 18.7-18 12-40 1-54.9-10.7-8-6.3-15.6-16.8-24.3-21.3-19.5-10.1-38.2-5.9-58.6-13.7-46.1-17.5-72.4-52.7-126.4-63.7-30.4-6.2-43.1-8.6-69.8-25.7-25-16.2-49.4-33-75.4-47.8-31-17.6-67.3-25.5-100.6-38.7-44.1-17.3-90.4-46.9-136.6-54.5-37.3-6.2-52.4 5.8-85.9 15.3-23 6.6-46.3 9.4-69 17.6-38.9 14.2-70.5 41.2-108.2 58-44.7 19.8-86.2 23.4-127.7 53.4-22.6 16.4-40.5 39-65.2 52.6-41.5 22.7-89.6 18.2-128.8 49-21.2 16.6-38.4 47-68.3 46.3-15.3-8.8-16.4-26-11.9-41.7 9.2-32.3 58.5-69 88.7-81 21.6-8.4 44.9-11 67-17.8 59.3-18 103.4-63 157.2-91.8C353 79 382.4 73.7 422.6 62 510.2 36.7 570-14.2 668.2 3.8 742 17.2 783 58.3 847.6 85c41.6 17.2 85 30.8 125.7 50.3 29.3 14 55.5 33.6 85.4 47.5 36.3 17 70 25.2 108.2 35.6 35.7 9.7 62.1 29 97.7 37 23.1 5.3 51.5 6 61 32.5Z" />
  <path fill="#C1DDE5"
    d="M1314 315.5c-8.5 23.7-33.2 21-52.8 13.8-29.6-11-53.4-33.2-83-45.4-11.3-4.6-28-10.6-39.6-14.1-20.1-6.1-39.8-4.3-57.4-18.5-6.7-5.5-9.6-13-15.6-18.3-16.4-14.3-35.9-12.5-55.4-17.8-32.5-8.7-48.7-22.7-76-39.1-25.6-15.4-54.1-16.3-79.8-29.2-24.6-12.3-45.9-34.8-74.5-41.5-31.6-7.4-51-7.7-79-27.2-14.2-9.8-24-24.7-43.2-24-23.3 1-49.1 26.1-72.7 35.3-15.3 5.9-30.2 6.4-44 11.4-16.1 5.8-31.3 18.2-48 23.4-7.4 2.3-15.3 2.8-22.6 5.1-21.5 7-36.6 30.6-58.1 40-38.9 17.2-74.7 14.3-114 38.8-34.2 21.2-69 48-109 57.8-18.4 4.6-35.3 1.4-53 9.5-34.4 15.7-78.4 81-122.1 56 30 .7 47-29.6 68.3-46.3 39.2-30.7 87.3-26.2 128.8-48.9 24.7-13.5 42.6-36.2 65.2-52.6 41.5-30 83-33.6 127.7-53.5 37.7-16.7 69.3-43.7 108.2-57.9 22.7-8.2 46-11 69-17.6 33.5-9.5 48.6-21.5 86-15.3C713.4 47 759.7 76.6 803.8 94c33.3 13.2 69.6 21 100.6 38.7 26 14.8 50.3 31.6 75.4 47.8 26.7 17.1 39.4 19.5 69.8 25.7 54 11 80.3 46.2 126.4 63.7 20.4 7.8 39.1 3.6 58.6 13.7 8.7 4.5 16.3 15 24.3 21.3 14.9 11.8 36.9 22.8 55 10.7Z" />
</svg>
